X: 149
T: Renatton's Fancy
C: J.Scott Skinner & J.Murdoch Henderson
P: Tune for "Chantry Hall"
B: Roy Goldring "14 Social Dances for 2000"
R: strathspey
Z: 2015 John Chambers <jc:trillian.mit.edu>
M: C
L: 1/8
K: G
[|\
"G"D>G B<d "Am"c<A "A7/c#"E>G | "D7"F>G A>e "G"d<B B<g |\
"G"G>A B>d "Am"c<A "A7/c#"E>G | "D7"F>A d>c "G"B<G G2 |
"G"D>G B<d "Am"c<A "A7/c#"E>G | "D7"F>G A>e "G"d<B B<g |\
"G/B"G/F/G/A/ B/A/B/d/ "Am/c"c<A "A7/c#"E>G | "D7"F>A d>c "G"B<G G2 |]
[|\
"G"g>d "C"e<g "G/b"d<B B>G | "Am"c>d e/d/c/B/ "D7"A<a a>f |\
"G"g>d "C"e<g "G/b"d<B B>G | "D7"(3FDF (3Adc "G"B<G G>d |
"G"g>d "C"e<g "G/b"d<B B>G | "Am"c>d e/d/c/B/ "D7"A<a a>f |\
"G"(3gbg "D"(3afd "C"(3ege "G/b"(3dBG | "D7"(3FDF (3Adc "G"B<G G2 |]

%%sep 1 1 500

